src/icons/qbt-theme/build-icons/icons/view-calendar-journal.svg

<svg xmlns="http://www.w3.org/2000/svg" viewBox="0 0 32 32">
  <path fill="#375273" d="M27.1 9.1v17.1c0 .5-.2.9-.5 1.2s-.7.6-1.2.6H6.6c-.5 0-.9-.2-1.2-.5s-.5-.7-.5-1.2V9.1c0-.5.2-.9.5-1.2s.7-.5 1.2-.5h1.7V6.1c0-.6.2-1.1.6-1.5.4-.4.9-.6 1.5-.6h.9c.6 0 1.1.2 1.5.6.4.4.6.9.6 1.5v1.3h5.1V6.1c0-.6.2-1.1.6-1.5.5-.4 1-.6 1.6-.6h.9c.6 0 1.1.2 1.5.6.4.4.6.9.6 1.5v1.3h1.7c.5 0 .9.2 1.2.5s.5.8.5 1.2zM6.6 16.4h3.9v-3.9H6.6v3.9zm0 5.2h3.9v-4.3H6.6v4.3zm0 4.7h3.9v-3.9H6.6v3.9zM11.7 10V6.1c0-.1 0-.2-.1-.3-.1-.1-.2-.1-.3-.1h-.9c-.1 0-.2 0-.3.1-.1.1-.1.2-.1.3V10c0 .1 0 .2.1.3s.2.1.3.1h.9c.1 0 .2 0 .3-.1.1-.1.1-.2.1-.3zm-.4 6.4h4.3v-3.9h-4.3v3.9zm0 5.2h4.3v-4.3h-4.3v4.3zm0 4.7h4.3v-3.9h-4.3v3.9zm5.1-9.9h4.3v-3.9h-4.3v3.9zm0 5.2h4.3v-4.3h-4.3v4.3zm0 4.7h4.3v-3.9h-4.3v3.9zM22 10V6.1c0-.1 0-.2-.1-.3-.1-.1-.2-.1-.3-.1h-.9c-.1 0-.2 0-.3.1-.1.1-.1.2-.1.3V10c0 .1 0 .2.1.3s.2.1.3.1h.9c.1 0 .2 0 .3-.1s.1-.2.1-.3zm-.4 6.4h3.9v-3.9h-3.9v3.9zm0 5.2h3.9v-4.3h-3.9v4.3zm0 4.7h3.9v-3.9h-3.9v3.9z"/>
</svg>

<?xml version="1.0" encoding="utf-8"?>
<!-- Generator: Adobe Illustrator 18.0.0, SVG Export Plug-In . SVG Version: 6.00 Build 0)  -->
<!DOCTYPE svg PUBLIC "-//W3C//DTD SVG 1.1//EN" "http://www.w3.org/Graphics/SVG/1.1/DTD/svg11.dtd">
<svg version="1.1" id="Layer_1" xmlns="http://www.w3.org/2000/svg" xmlns:xlink="http://www.w3.org/1999/xlink" x="0px" y="0px"
	 viewBox="0 0 32 32" enable-background="new 0 0 32 32" xml:space="preserve">
<g>
	<path fill="#375273" d="M27.1,9.1v17.1c0,0.5-0.2,0.9-0.5,1.2S25.9,28,25.4,28H6.6c-0.5,0-0.9-0.2-1.2-0.5s-0.5-0.7-0.5-1.2V9.1
		c0-0.5,0.2-0.9,0.5-1.2s0.7-0.5,1.2-0.5h1.7V6.1c0-0.6,0.2-1.1,0.6-1.5C9.3,4.2,9.8,4,10.4,4h0.9c0.6,0,1.1,0.2,1.5,0.6
		c0.4,0.4,0.6,0.9,0.6,1.5v1.3h5.1V6.1c0-0.6,0.2-1.1,0.6-1.5C19.6,4.2,20.1,4,20.7,4h0.9c0.6,0,1.1,0.2,1.5,0.6
		c0.4,0.4,0.6,0.9,0.6,1.5v1.3h1.7c0.5,0,0.9,0.2,1.2,0.5S27.1,8.7,27.1,9.1z M6.6,16.4h3.9v-3.9H6.6V16.4z M6.6,21.6h3.9v-4.3H6.6
		V21.6z M6.6,26.3h3.9v-3.9H6.6V26.3z M11.7,10V6.1c0-0.1,0-0.2-0.1-0.3c-0.1-0.1-0.2-0.1-0.3-0.1h-0.9c-0.1,0-0.2,0-0.3,0.1
		C10,5.9,10,6,10,6.1V10c0,0.1,0,0.2,0.1,0.3s0.2,0.1,0.3,0.1h0.9c0.1,0,0.2,0,0.3-0.1C11.7,10.2,11.7,10.1,11.7,10z M11.3,16.4h4.3
		v-3.9h-4.3V16.4z M11.3,21.6h4.3v-4.3h-4.3V21.6z M11.3,26.3h4.3v-3.9h-4.3V26.3z M16.4,16.4h4.3v-3.9h-4.3V16.4z M16.4,21.6h4.3
		v-4.3h-4.3V21.6z M16.4,26.3h4.3v-3.9h-4.3V26.3z M22,10V6.1c0-0.1,0-0.2-0.1-0.3c-0.1-0.1-0.2-0.1-0.3-0.1h-0.9
		c-0.1,0-0.2,0-0.3,0.1c-0.1,0.1-0.1,0.2-0.1,0.3V10c0,0.1,0,0.2,0.1,0.3s0.2,0.1,0.3,0.1h0.9c0.1,0,0.2,0,0.3-0.1S22,10.1,22,10z
		 M21.6,16.4h3.9v-3.9h-3.9V16.4z M21.6,21.6h3.9v-4.3h-3.9V21.6z M21.6,26.3h3.9v-3.9h-3.9V26.3z"/>
</g>
</svg>
